dist/img/svg/ic_vb.svg

<svg width="20" height="20" viewBox="0 0 20 20" xmlns="http://www.w3.org/2000/svg">
    <path
        d="M17.7446 1.9475C17.2215 1.49053 15.1044 0.033679 10.3841 0.0141502C10.3841 0.0141502 4.81952 -0.302216 2.1093 2.05686C0.601785 3.48637 0.0704487 5.58376 0.0127843 8.18109C-0.0448801 10.7784 -0.114901 15.645 4.83188 16.9651H4.836L4.83188 18.9805C4.83188 18.9805 4.79893 19.7968 5.36733 19.9609C6.05107 20.164 6.45472 19.5429 7.10962 18.8751C7.46797 18.5079 7.96223 17.9689 8.33705 17.5588C11.7228 17.8283 14.3218 17.2112 14.6184 17.1214C15.3021 16.9105 19.1697 16.4418 19.7958 11.5752C20.4466 6.55239 19.4828 3.38091 17.7446 1.9475V1.9475ZM18.3171 11.2081C17.7858 15.27 14.6513 15.5278 14.0747 15.7036C13.8275 15.7778 11.5415 16.3168 8.67068 16.141C8.67068 16.141 6.52886 18.5899 5.8616 19.2266C5.6433 19.4336 5.4044 19.4141 5.40852 19.004C5.40852 18.7345 5.425 15.6567 5.425 15.6567C5.42088 15.6567 5.42088 15.6567 5.425 15.6567C1.23197 14.5553 1.47911 10.4113 1.52442 8.24359C1.56972 6.07589 2.00221 4.29877 3.27906 3.10361C5.57328 1.1312 10.2976 1.42413 10.2976 1.42413C14.2888 1.43975 16.2 2.58023 16.6448 2.963C18.1153 4.15816 18.8649 7.01718 18.3171 11.2081V11.2081ZM12.5919 8.0522C12.6083 8.3881 12.077 8.41153 12.0605 8.07564C12.0152 7.21637 11.591 6.79845 10.7178 6.75159C10.3635 6.73206 10.3965 6.22821 10.7466 6.24774C11.8958 6.30633 12.5342 6.93125 12.5919 8.0522ZM13.428 8.49355C13.4692 6.83751 12.3777 5.5408 10.3059 5.39629C9.95577 5.37285 9.99284 4.86901 10.3429 4.89244C12.7319 5.05649 14.0046 6.61488 13.9593 8.50527C13.9552 8.84117 13.4198 8.82554 13.428 8.49355V8.49355ZM15.3639 9.01693C15.368 9.35282 14.8325 9.35673 14.8325 9.02083C14.8078 5.83764 12.5713 4.10348 9.85692 4.08395C9.50681 4.08005 9.50681 3.58011 9.85692 3.58011C12.8925 3.59964 15.335 5.58767 15.3639 9.01693V9.01693ZM14.8984 12.8485V12.8563C14.4536 13.5984 13.6216 14.4186 12.7649 14.1569L12.7566 14.1452C11.8875 13.9147 9.84044 12.9149 8.54711 11.9384C7.87985 11.4385 7.27026 10.8487 6.80071 10.2824C6.37646 9.77855 5.9481 9.18097 5.53209 8.46231C4.65477 6.95859 4.46118 6.2868 4.46118 6.2868C4.18521 5.4744 5.04606 4.68544 5.83277 4.26362H5.84101C6.21994 4.07614 6.58241 4.13863 6.82542 4.41594C6.82542 4.41594 7.33616 4.99399 7.55446 5.27911C7.76041 5.54471 8.03637 5.97043 8.18053 6.20868C8.43178 6.63441 8.27527 7.06795 8.02813 7.24762L7.53387 7.62257C7.28262 7.81395 7.31557 8.16938 7.31557 8.16938C7.31557 8.16938 8.04873 10.798 10.7878 11.4619C10.7878 11.4619 11.1626 11.4932 11.3644 11.2549L11.7598 10.7862C11.9493 10.5519 12.4065 10.4035 12.8555 10.6417C13.4609 10.9659 14.2312 11.4697 14.7419 11.9267C15.0302 12.1493 15.0961 12.4891 14.8984 12.8485Z" />
</svg>

<svg width="20" height="20" viewBox="0 0 20 20" xmlns="http://www.w3.org/2000/svg"><path d="M17.745 1.948c-.524-.457-2.64-1.914-7.36-1.934 0 0-5.565-.316-8.276 2.043C.602 3.487.07 5.584.013 8.18c-.058 2.597-.128 7.464 4.819 8.784h.004l-.004 2.015s-.033.817.535.98c.684.204 1.088-.417 1.743-1.085.358-.367.852-.906 1.227-1.316 3.386.27 5.985-.348 6.281-.438.684-.21 4.552-.68 5.178-5.546.65-5.023-.313-8.194-2.051-9.627zm.572 9.26c-.531 4.062-3.666 4.32-4.242 4.496-.247.074-2.534.613-5.404.437 0 0-2.142 2.449-2.81 3.086-.218.207-.457.187-.452-.223 0-.27.016-3.347.016-3.347-.004 0-.004 0 0 0-4.193-1.102-3.946-5.246-3.9-7.413.045-2.168.477-3.945 1.754-5.14 2.294-1.973 7.019-1.68 7.019-1.68 3.99.016 5.902 1.156 6.347 1.539 1.47 1.195 2.22 4.054 1.672 8.245zm-5.725-3.156c.016.336-.515.36-.532.024-.045-.86-.469-1.278-1.342-1.324-.354-.02-.322-.524.029-.504 1.149.058 1.787.683 1.845 1.804zm.836.442c.041-1.656-1.05-2.953-3.122-3.098-.35-.023-.313-.527.037-.504 2.389.164 3.662 1.723 3.616 3.613-.004.336-.54.32-.531-.011zm1.936.523c.004.336-.532.34-.532.004-.024-3.183-2.26-4.918-4.975-4.937-.35-.004-.35-.504 0-.504 3.036.02 5.478 2.008 5.507 5.437zm-.466 3.832v.007c-.444.742-1.276 1.563-2.133 1.3l-.008-.01c-.87-.231-2.917-1.231-4.21-2.208-.667-.5-1.277-1.09-1.746-1.656a12.643 12.643 0 01-1.269-1.82c-.877-1.503-1.07-2.175-1.07-2.175-.277-.813.584-1.602 1.37-2.023h.009c.379-.188.741-.125.984.152 0 0 .511.578.73.863.205.266.481.691.626.93.25.425.094.859-.153 1.039l-.494.375c-.251.19-.218.546-.218.546s.733 2.629 3.472 3.293c0 0 .375.031.576-.207l.396-.469c.19-.234.646-.383 1.095-.144.606.324 1.376.828 1.887 1.285.288.222.354.562.156.921z"/></svg>
